icons/vmwareworkstation-dark.svg

<svg width="256" height="256" viewBox="0 0 256 256" fill="none" xmlns="http://www.w3.org/2000/svg">
<rect width="256" height="256" rx="60" fill="#282828"/>
<path d="M136.267 110.367C140.865 111.772 143.874 114.787 145.295 119.41V145.259H165.721V145.232H168.863V145.179H169.156V101.325C166.813 93.6952 161.851 88.7157 154.27 86.386H62.8438C55.2613 88.707 50.2991 93.6866 47.9572 101.325V193.515C50.3006 201.144 55.3694 205.973 63.1635 208H153.95C161.744 205.973 166.813 201.144 169.156 193.515V169.481H145.295V175.269C143.874 179.893 140.803 182.818 136.08 184.045H136.693H80.4205H81.0597C76.3371 182.818 73.2656 179.893 71.8453 175.269V119.41C73.2656 114.787 76.2749 111.772 80.8733 110.367H136.267Z" fill="#F38B00"/>
<path d="M208.065 62.9383C205.721 55.3091 200.759 50.3297 193.178 48H101.752C94.1712 50.3297 89.2089 55.3091 86.8654 62.9383V86.386H110.727V81.0244C112.147 76.4006 115.157 73.3862 119.755 71.9812H175.148C179.747 73.3862 182.756 76.4006 184.177 81.0244V136.883C182.756 141.506 179.685 144.432 174.962 145.659H175.601H119.329H119.942C115.219 144.432 112.147 141.506 110.727 136.883V110.367H86.8654V155.128C89.2089 162.758 94.2778 167.586 102.072 169.613H192.858C200.653 167.586 205.721 162.758 208.065 155.128V62.9383Z" fill="#0097D3"/>
<path d="M169.156 179.724V169.48L146.653 169.614L169.156 179.724Z" fill="#C96D00"/>
<path d="M86.8654 111.034V120.637L109.635 110.927L86.8654 111.034Z" fill="#0077A9"/>
</svg>

<svg xmlns="http://www.w3.org/2000/svg" width="256" height="256" fill="none"><rect width="256" height="256" fill="#282828" rx="60"/><path fill="#F38B00" d="M136.267 110.367q6.897 2.108 9.028 9.043v25.849h20.426v-.027h3.142v-.053h.293v-43.854q-3.514-11.445-14.886-14.939H62.844q-11.374 3.481-14.887 14.939v92.19Q51.473 204.959 63.163 208h90.787q11.691-3.041 15.206-14.485v-24.034h-23.861v5.788q-2.131 6.936-9.215 8.776h.613H80.42h.64q-7.084-1.84-9.215-8.776V119.41q2.13-6.935 9.028-9.043z"/><path fill="#0097D3" d="M208.065 62.938Q204.549 51.495 193.178 48h-91.426q-11.37 3.496-14.887 14.938v23.448h23.862v-5.362q2.13-6.935 9.028-9.043h55.393q6.898 2.108 9.029 9.043v55.859q-2.131 6.935-9.215 8.776h.639-56.272.613q-7.085-1.841-9.215-8.776v-26.516H86.865v44.761q3.516 11.445 15.207 14.485h90.786q11.692-3.04 15.207-14.485z"/><path fill="#C96D00" d="M169.156 179.724V169.48l-22.503.134z"/><path fill="#0077A9" d="M86.865 111.034v9.603l22.77-9.71z"/></svg>
